images/Pointer.svg

<svg width="22" height="25" viewBox="0 0 22 25" fill="none" xmlns="http://www.w3.org/2000/svg">
<g filter="url(#filter0_d_62863_1118)">
<mask id="path-1-outside-1_62863_1118" maskUnits="userSpaceOnUse" x="3" y="2" width="16" height="19" fill="black">
<rect fill="white" x="3" y="2" width="16" height="19"/>
<path fill-rule="evenodd" clip-rule="evenodd" d="M7.83555 13L6.94894 11.6453C6.34355 10.7203 5.05404 10.3829 4.06767 10.89L4.2975 10.7718C4.05272 10.8977 3.93534 11.2114 4.03613 11.4721L5.2634 14.6474C5.45796 15.1508 5.95486 15.8627 6.36661 16.2203C6.36661 16.2203 8.83555 18.2639 8.83555 19.03V20H12.8355L13.8355 18L14.8355 20H15.8355V19.03C15.8355 18.2639 17.3444 15.8507 17.3444 15.8507C17.6221 15.3816 17.8536 14.5552 17.8536 14.0066V9.9718C17.8355 9.0785 17.0762 8.35454 16.1393 8.35454C15.6705 8.35454 15.2909 8.71652 15.2909 9.16341V9.48657C15.2909 8.59327 14.5315 7.86931 13.5946 7.86931C13.1258 7.86931 12.7462 8.23129 12.7462 8.67819V9.00135C12.7462 8.10804 11.9868 7.38408 11.0499 7.38408C10.5812 7.38408 10.2015 7.74606 10.2015 8.19296V8.51612C10.2015 8.37256 10.1862 8.25843 10.1565 8.16799L9.89773 4.00121C9.86274 3.43776 9.38783 3 8.83555 3C8.27941 3 7.83555 3.44763 7.83555 3.99981V8V13ZM14.8536 12L15.8536 12V16H14.8536V12ZM12.8536 12L13.8536 12V16H12.8536V12ZM10.8536 12L11.8536 12V16H10.8536V12Z"/>
</mask>
<path fill-rule="evenodd" clip-rule="evenodd" d="M7.83555 13L6.94894 11.6453C6.34355 10.7203 5.05404 10.3829 4.06767 10.89L4.2975 10.7718C4.05272 10.8977 3.93534 11.2114 4.03613 11.4721L5.2634 14.6474C5.45796 15.1508 5.95486 15.8627 6.36661 16.2203C6.36661 16.2203 8.83555 18.2639 8.83555 19.03V20H12.8355L13.8355 18L14.8355 20H15.8355V19.03C15.8355 18.2639 17.3444 15.8507 17.3444 15.8507C17.6221 15.3816 17.8536 14.5552 17.8536 14.0066V9.9718C17.8355 9.0785 17.0762 8.35454 16.1393 8.35454C15.6705 8.35454 15.2909 8.71652 15.2909 9.16341V9.48657C15.2909 8.59327 14.5315 7.86931 13.5946 7.86931C13.1258 7.86931 12.7462 8.23129 12.7462 8.67819V9.00135C12.7462 8.10804 11.9868 7.38408 11.0499 7.38408C10.5812 7.38408 10.2015 7.74606 10.2015 8.19296V8.51612C10.2015 8.37256 10.1862 8.25843 10.1565 8.16799L9.89773 4.00121C9.86274 3.43776 9.38783 3 8.83555 3C8.27941 3 7.83555 3.44763 7.83555 3.99981V8V13ZM14.8536 12L15.8536 12V16H14.8536V12ZM12.8536 12L13.8536 12V16H12.8536V12ZM10.8536 12L11.8536 12V16H10.8536V12Z" fill="white"/>
<path d="M7.83555 13L6.99882 13.5476L8.83555 16.354V13H7.83555ZM6.94894 11.6453L7.78566 11.0977L6.94894 11.6453ZM4.03613 11.4721L3.10338 11.8327L4.03613 11.4721ZM5.2634 14.6474L6.19615 14.2869L5.2634 14.6474ZM6.36661 16.2203L5.71088 16.9753L5.71984 16.9831L5.72899 16.9907L6.36661 16.2203ZM8.83555 20H7.83555V21H8.83555V20ZM12.8355 20V21H13.4536L13.73 20.4472L12.8355 20ZM13.8355 18L14.73 17.5528L13.8355 15.7639L12.9411 17.5528L13.8355 18ZM14.8355 20L13.9411 20.4472L14.2175 21H14.8355V20ZM15.8355 20V21H16.8355V20H15.8355ZM17.3444 15.8507L18.1923 16.3808L18.1987 16.3706L18.2049 16.3602L17.3444 15.8507ZM17.8536 9.9718H18.8536V9.96168L18.8534 9.95156L17.8536 9.9718ZM10.1565 8.16799L9.15843 8.22998L9.16637 8.35779L9.20626 8.47948L10.1565 8.16799ZM9.89773 4.00121L8.89965 4.0632V4.0632L9.89773 4.00121ZM7.83555 3.99981H6.83555H7.83555ZM15.8536 12H16.8536V11H15.8536V12ZM15.8536 16V17H16.8536V16H15.8536ZM14.8536 16H13.8536V17H14.8536V16ZM13.8536 12H14.8536V11H13.8536V12ZM13.8536 16V17H14.8536V16H13.8536ZM12.8536 16H11.8536V17H12.8536V16ZM11.8536 12H12.8536V11H11.8536V12ZM11.8536 16V17H12.8536V16H11.8536ZM10.8536 16H9.85364V17H10.8536V16ZM8.67227 12.4524L7.78566 11.0977L6.11221 12.193L6.99882 13.5476L8.67227 12.4524ZM7.78566 11.0977C6.89807 9.74153 5.04892 9.2611 3.61046 10.0006L4.52489 11.7793C5.05915 11.5047 5.78903 11.6992 6.11221 12.193L7.78566 11.0977ZM4.52489 11.7793L4.75472 11.6612L3.84029 9.88245L3.61046 10.0006L4.52489 11.7793ZM3.84029 9.88245C3.13107 10.2471 2.82221 11.1052 3.10338 11.8327L4.96888 11.1116C5.01446 11.2295 5.00452 11.3396 4.97402 11.4213C4.9436 11.5027 4.87647 11.5986 4.75472 11.6612L3.84029 9.88245ZM3.10338 11.8327L4.33065 15.0079L6.19615 14.2869L4.96888 11.1116L3.10338 11.8327ZM4.33065 15.0079C4.58336 15.6618 5.17467 16.5096 5.71088 16.9753L7.02235 15.4653C6.73505 15.2158 6.33256 14.6398 6.19615 14.2869L4.33065 15.0079ZM6.36661 16.2203C5.72899 16.9907 5.72893 16.9906 5.72888 16.9906C5.72888 16.9906 5.72884 16.9905 5.72883 16.9905C5.72881 16.9905 5.72883 16.9905 5.72888 16.9906C5.729 16.9907 5.72925 16.9909 5.72966 16.9912C5.73046 16.9919 5.73185 16.993 5.7338 16.9947C5.73769 16.9979 5.74381 17.003 5.75203 17.0099C5.76846 17.0237 5.79322 17.0445 5.82511 17.0716C5.88894 17.1259 5.98107 17.205 6.092 17.3025C6.31488 17.4985 6.60889 17.7648 6.90011 18.051C7.19576 18.3416 7.46766 18.6324 7.65871 18.8795C7.75472 19.0037 7.81303 19.0948 7.84316 19.1524C7.8837 19.23 7.83555 19.1741 7.83555 19.03H9.83555C9.83555 18.6944 9.71025 18.407 9.61577 18.2262C9.51087 18.0255 9.3763 17.8312 9.24085 17.6561C8.96897 17.3045 8.62364 16.9407 8.30205 16.6247C7.97604 16.3042 7.65282 16.0118 7.41277 15.8007C7.29223 15.6947 7.19147 15.6081 7.12029 15.5476C7.08467 15.5174 7.05639 15.4935 7.03665 15.477C7.02678 15.4687 7.01905 15.4623 7.01359 15.4577C7.01087 15.4555 7.00871 15.4537 7.00714 15.4524C7.00636 15.4517 7.00573 15.4512 7.00524 15.4508C7.005 15.4506 7.00479 15.4504 7.00462 15.4503C7.00454 15.4502 7.00444 15.4501 7.0044 15.4501C7.00431 15.45 7.00423 15.45 6.36661 16.2203ZM7.83555 19.03V20H9.83555V19.03H7.83555ZM8.83555 21H12.8355V19H8.83555V21ZM13.73 20.4472L14.73 18.4472L12.9411 17.5528L11.9411 19.5528L13.73 20.4472ZM12.9411 18.4472L13.9411 20.4472L15.73 19.5528L14.73 17.5528L12.9411 18.4472ZM14.8355 21H15.8355V19H14.8355V21ZM16.8355 20V19.03H14.8355V20H16.8355ZM16.8355 19.03C16.8355 19.0658 16.8465 18.9439 16.9921 18.6C17.1161 18.3073 17.2882 17.9649 17.47 17.6279C17.6502 17.2941 17.8315 16.9809 17.9685 16.7503C18.0367 16.6354 18.0934 16.5418 18.1327 16.4775C18.1524 16.4453 18.1677 16.4206 18.1778 16.4041C18.1829 16.3959 18.1867 16.3897 18.1892 16.3858C18.1904 16.3839 18.1913 16.3825 18.1918 16.3816C18.1921 16.3812 18.1922 16.3809 18.1923 16.3808C18.1924 16.3807 18.1924 16.3807 18.1924 16.3807C18.1924 16.3807 18.1924 16.3807 18.1923 16.3807C18.1923 16.3808 18.1923 16.3808 17.3444 15.8507C16.4965 15.3205 16.4964 15.3206 16.4964 15.3207C16.4964 15.3207 16.4963 15.3208 16.4963 15.3209C16.4962 15.321 16.4961 15.3212 16.4959 15.3214C16.4956 15.3219 16.4953 15.3225 16.4948 15.3232C16.4939 15.3247 16.4926 15.3268 16.4909 15.3294C16.4877 15.3347 16.483 15.3422 16.477 15.3518C16.4651 15.3711 16.448 15.3989 16.4264 15.4342C16.3832 15.5049 16.322 15.6059 16.2488 15.7291C16.1029 15.9749 15.907 16.3129 15.7099 16.6782C15.5145 17.0402 15.3094 17.4448 15.1505 17.82C15.0132 18.1441 14.8355 18.6111 14.8355 19.03H16.8355ZM18.2049 16.3602C18.4027 16.0261 18.5593 15.6131 18.6668 15.2258C18.7741 14.839 18.8536 14.4009 18.8536 14.0066H16.8536C16.8536 14.161 16.8175 14.4103 16.7396 14.6912C16.6618 14.9714 16.5639 15.2061 16.4839 15.3412L18.2049 16.3602ZM18.8536 14.0066V9.9718H16.8536V14.0066H18.8536ZM18.8534 9.95156C18.8237 8.48181 17.5879 7.35454 16.1393 7.35454V9.35454C16.5646 9.35454 16.8474 9.67519 16.8538 9.99205L18.8534 9.95156ZM16.1393 7.35454C15.1637 7.35454 14.2909 8.11981 14.2909 9.16341H16.2909C16.2909 9.23171 16.2602 9.28577 16.2293 9.31516C16.1994 9.34373 16.1653 9.35454 16.1393 9.35454V7.35454ZM14.2909 9.16341V9.48657H16.2909V9.16341H14.2909ZM16.2909 9.48657C16.2909 7.99657 15.0383 6.86931 13.5946 6.86931V8.86931C14.0247 8.86931 14.2909 9.18998 14.2909 9.48657H16.2909ZM13.5946 6.86931C12.6191 6.86931 11.7462 7.63458 11.7462 8.67819H13.7462C13.7462 8.74648 13.7155 8.80054 13.6847 8.82993C13.6547 8.8585 13.6206 8.86931 13.5946 8.86931V6.86931ZM11.7462 8.67819V9.00135H13.7462V8.67819H11.7462ZM13.7462 9.00135C13.7462 7.51134 12.4936 6.38408 11.0499 6.38408V8.38408C11.4801 8.38408 11.7462 8.70475 11.7462 9.00135H13.7462ZM11.0499 6.38408C10.0744 6.38408 9.2015 7.14936 9.2015 8.19296H11.2015C11.2015 8.26126 11.1708 8.31532 11.14 8.3447C11.11 8.37328 11.0759 8.38408 11.0499 8.38408V6.38408ZM9.2015 8.19296V8.51612H11.2015V8.19296H9.2015ZM11.2015 8.51612C11.2015 8.3088 11.1803 8.08088 11.1068 7.85651L9.20626 8.47948C9.19841 8.45553 9.19759 8.44436 9.19853 8.45156C9.19947 8.45874 9.2015 8.4791 9.2015 8.51612H11.2015ZM11.1546 8.10601L10.8958 3.93923L8.89965 4.0632L9.15843 8.22998L11.1546 8.10601ZM10.8958 3.93923C10.8279 2.84504 9.91249 2 8.83555 2V4C8.84436 4 8.86024 4.00346 8.8772 4.01933C8.89327 4.03438 8.89882 4.04976 8.89965 4.0632L10.8958 3.93923ZM8.83555 2C7.7248 2 6.83555 2.89768 6.83555 3.99981H8.83555V4V2ZM6.83555 3.99981V8H8.83555V3.99981H6.83555ZM6.83555 8V13H8.83555V8H6.83555ZM14.8536 13H15.8536V11H14.8536V13ZM14.8536 12V16H16.8536V12H14.8536ZM15.8536 15H14.8536V17H15.8536V15ZM15.8536 16V12H13.8536V16H15.8536ZM12.8536 13H13.8536V11H12.8536V13ZM12.8536 12V16H14.8536V12H12.8536ZM13.8536 15H12.8536V17H13.8536V15ZM13.8536 16V12H11.8536V16H13.8536ZM10.8536 13H11.8536V11H10.8536V13ZM10.8536 12V16H12.8536V12H10.8536ZM11.8536 15H10.8536V17H11.8536V15ZM11.8536 16V12H9.85364V16H11.8536Z" fill="black" fill-opacity="0.8" mask="url(#path-1-outside-1_62863_1118)"/>
</g>
<defs>
<filter id="filter0_d_62863_1118" x="0" y="0" width="21.8535" height="25" filterUnits="userSpaceOnUse" color-interpolation-filters="sRGB">
<feFlood flood-opacity="0" result="BackgroundImageFix"/>
<feColorMatrix in="SourceAlpha" type="matrix" values="0 0 0 0 0 0 0 0 0 0 0 0 0 0 0 0 0 0 127 0" result="hardAlpha"/>
<feOffset dy="1"/>
<feGaussianBlur stdDeviation="1.5"/>
<feColorMatrix type="matrix" values="0 0 0 0 0 0 0 0 0 0 0 0 0 0 0 0 0 0 0.2 0"/>
<feBlend mode="normal" in2="BackgroundImageFix" result="effect1_dropShadow_62863_1118"/>
<feBlend mode="normal" in="SourceGraphic" in2="effect1_dropShadow_62863_1118" result="shape"/>
</filter>
</defs>
</svg>

<svg width="22" height="25" fill="none" xmlns="http://www.w3.org/2000/svg">
    <g filter="url(#a)">
        <mask id="b" maskUnits="userSpaceOnUse" x="3" y="2" width="16" height="19" fill="#000">
            <path fill="#fff" d="M3 2h16v19H3z"/>
            <path fill-rule="evenodd" clip-rule="evenodd" d="m7.836 13-.887-1.355c-.605-.925-1.895-1.262-2.881-.755l.23-.118a.572.572 0 0 0-.262.7l1.227 3.175c.195.504.692 1.216 1.104 1.573 0 0 2.469 2.044 2.469 2.81V20h4l1-2 1 2h1v-.97c0-.766 1.508-3.18 1.508-3.18.278-.468.51-1.295.51-1.843V9.972c-.018-.893-.778-1.617-1.715-1.617-.468 0-.848.362-.848.808v.324c0-.894-.76-1.618-1.696-1.618-.47 0-.849.362-.849.81V9c0-.893-.76-1.617-1.696-1.617-.469 0-.849.362-.849.809v.323c0-.143-.015-.258-.045-.348l-.258-4.167A1.072 1.072 0 0 0 8.836 3c-.557 0-1 .448-1 1v9Zm7.018-1h1v4h-1v-4Zm-2 0h1v4h-1v-4Zm-2 0h1v4h-1v-4Z"/>
        </mask>
        <path fill-rule="evenodd" clip-rule="evenodd" d="m7.836 13-.887-1.355c-.605-.925-1.895-1.262-2.881-.755l.23-.118a.572.572 0 0 0-.262.7l1.227 3.175c.195.504.692 1.216 1.104 1.573 0 0 2.469 2.044 2.469 2.81V20h4l1-2 1 2h1v-.97c0-.766 1.508-3.18 1.508-3.18.278-.468.51-1.295.51-1.843V9.972c-.018-.893-.778-1.617-1.715-1.617-.468 0-.848.362-.848.808v.324c0-.894-.76-1.618-1.696-1.618-.47 0-.849.362-.849.81V9c0-.893-.76-1.617-1.696-1.617-.469 0-.849.362-.849.809v.323c0-.143-.015-.258-.045-.348l-.258-4.167A1.072 1.072 0 0 0 8.836 3c-.557 0-1 .448-1 1v9Zm7.018-1h1v4h-1v-4Zm-2 0h1v4h-1v-4Zm-2 0h1v4h-1v-4Z" fill="#fff"/>
        <path d="m7.836 13-.837.548 1.837 2.806V13h-1Zm-.887-1.355.837-.547-.837.547Zm-2.913-.173-.933.36.933-.36Zm1.227 3.175.933-.36-.933.36Zm1.104 1.573-.656.755.009.008.009.008.638-.77ZM8.836 20h-1v1h1v-1Zm4 0v1h.618l.276-.553-.895-.447Zm1-2 .894-.447-.895-1.79-.894 1.79.894.447Zm1 2-.895.447.276.553h.618v-1Zm1 0v1h1v-1h-1Zm1.508-4.15.848.53.007-.01.006-.01-.86-.51Zm.51-5.878h1v-.02l-1 .02Zm-7.697-1.804-.999.062.008.128.04.121.95-.311Zm-.26-4.167-.997.062.998-.062ZM7.837 4h-1 1Zm8.018 8h1v-1h-1v1Zm0 4v1h1v-1h-1Zm-1 0h-1v1h1v-1Zm-1-4h1v-1h-1v1Zm0 4v1h1v-1h-1Zm-1 0h-1v1h1v-1Zm-1-4h1v-1h-1v1Zm0 4v1h1v-1h-1Zm-1 0h-1v1h1v-1Zm-2.182-3.548-.886-1.354-1.674 1.095L7 13.548l1.673-1.096Zm-.886-1.354C6.898 9.742 5.049 9.26 3.61 10l.915 1.778c.534-.274 1.264-.08 1.587.414l1.674-1.095Zm-3.261.681.23-.118-.915-1.779-.23.119.915 1.778ZM3.84 9.882a1.571 1.571 0 0 0-.737 1.95l1.866-.72a.435.435 0 0 1 .005.31.45.45 0 0 1-.22.24l-.914-1.78Zm-.737 1.95 1.228 3.176 1.865-.721-1.227-3.175-1.866.72Zm1.228 3.176c.252.654.844 1.502 1.38 1.967l1.311-1.51c-.287-.25-.69-.825-.826-1.178l-1.865.72Zm2.036 1.212-.638.77v.001l.005.004a2.638 2.638 0 0 1 .091.077 21.981 21.981 0 0 1 1.075.979c.296.29.568.581.759.829.096.124.154.215.184.272.04.078-.007.022-.007-.122h2c0-.336-.126-.623-.22-.804-.105-.2-.24-.395-.375-.57a10.688 10.688 0 0 0-.939-1.031 22.293 22.293 0 0 0-1.265-1.148l-.023-.02-.007-.005-.002-.001-.638.77Zm1.469 2.81V20h2v-.97h-2Zm1 1.97h4v-2h-4v2Zm4.894-.553 1-2-1.789-.894-1 2 1.789.894Zm-.789-2 1 2 1.789-.894-1-2-1.789.894ZM14.835 21h1v-2h-1v2Zm2-1v-.97h-2V20h2Zm0-.97c0 .036.011-.086.157-.43.124-.293.296-.635.478-.972a25.155 25.155 0 0 1 .663-1.15l.045-.074.011-.018.003-.004v-.001l-.848-.53-.848-.53-.001.002a.192.192 0 0 1-.004.006l-.014.023a28.588 28.588 0 0 0-.767 1.326c-.196.362-.4.767-.56 1.142-.137.324-.315.791-.315 1.21h2Zm1.37-2.67c.198-.334.354-.747.462-1.134a4.75 4.75 0 0 0 .187-1.22h-2c0 .155-.037.404-.114.685-.078.28-.176.515-.256.65l1.72 1.02Zm.649-2.353V9.972h-2v4.035h2Zm0-4.055c-.03-1.47-1.266-2.597-2.715-2.597v2c.426 0 .708.32.715.637l2-.04Zm-2.715-2.597c-.975 0-1.848.765-1.848 1.808h2c0 .069-.03.123-.062.152a.134.134 0 0 1-.09.04v-2Zm-1.848 1.808v.324h2v-.324h-2Zm2 .324c0-1.49-1.253-2.618-2.696-2.618v2c.43 0 .696.321.696.618h2Zm-2.696-2.618c-.976 0-1.849.766-1.849 1.81h2c0 .067-.03.122-.061.15a.134.134 0 0 1-.09.04v-2Zm-1.849 1.81V9h2v-.323h-2Zm2 .322c0-1.49-1.252-2.617-2.696-2.617v2c.43 0 .696.32.696.617h2ZM11.05 6.384c-.976 0-1.849.765-1.849 1.809h2c0 .068-.03.122-.061.152a.134.134 0 0 1-.09.04v-2ZM9.2 8.193v.323h2v-.323h-2Zm2 .323c0-.207-.02-.435-.094-.66l-1.9.623c-.009-.023-.01-.035-.008-.027 0 .007.002.027.002.064h2Zm-.046-.41-.26-4.167-1.995.124.258 4.167 1.997-.124Zm-.26-4.167A2.072 2.072 0 0 0 8.836 2v2c.01 0 .025.003.042.02.016.014.022.03.023.043l1.996-.124ZM8.836 2c-1.11 0-2 .898-2 2h2V2Zm-2 2v4h2V4h-2Zm0 4v5h2V8h-2Zm8.019 5h1v-2h-1v2Zm0-1v4h2v-4h-2Zm1 3h-1v2h1v-2Zm0 1v-4h-2v4h2Zm-3-3h1v-2h-1v2Zm0-1v4h2v-4h-2Zm1 3h-1v2h1v-2Zm0 1v-4h-2v4h2Zm-3-3h1v-2h-1v2Zm0-1v4h2v-4h-2Zm1 3h-1v2h1v-2Zm0 1v-4h-2v4h2Z" fill="#000" fill-opacity=".8" mask="url(#b)"/>
    </g>
    <defs>
        <filter id="a" x="0" y="0" width="21.854" height="25" filterUnits="userSpaceOnUse" color-interpolation-filters="sRGB">
            <feFlood flood-opacity="0" result="BackgroundImageFix"/>
            <feColorMatrix in="SourceAlpha" values="0 0 0 0 0 0 0 0 0 0 0 0 0 0 0 0 0 0 127 0" result="hardAlpha"/>
            <feOffset dy="1"/>
            <feGaussianBlur stdDeviation="1.5"/>
            <feColorMatrix values="0 0 0 0 0 0 0 0 0 0 0 0 0 0 0 0 0 0 0.2 0"/>
            <feBlend in2="BackgroundImageFix" result="effect1_dropShadow_62863_1112"/>
            <feBlend in="SourceGraphic" in2="effect1_dropShadow_62863_1112" result="shape"/>
        </filter>
    </defs>
</svg>
